X:454
T: Guter Himmel, ich muá scheiden (169), S. 367
N: T0342
O: Luxemburg
S: Singendes Volk, Esch-Alzette, 1937 posth.]
N: Merzig, hhh Anton Koob, Liederheft, 1861
R: Abschieds- und Wanderlieder, Heimatlieder,  Liebeslied]
M: 2/4
L: 1/8
K: D
 | F3E | AAGE | DFF2
A3F | AAGG | F2z2
A3F | dccB | DBB2
A3A | cBAG | F2z2
A3F | dccB | DBB2
A3A | cBAG | F2z2

